dist/intermediate-svg/eventIcon--contract.svg

<?xml version="1.0" encoding="utf-8"?><svg xmlns="http://www.w3.org/2000/svg" viewBox="0 0 24 23" width="24" height="23"><path d="M24 7v4a2 2 0 01-2 2h-8v-1.5a.5.5 0 00-.5-.5h-3a.5.5 0 00-.5.5V13H2a2 2 0 01-2-2V7a2 2 0 012-2h20a2 2 0 012 2zM1 21a2 2 0 002 2h18a2 2 0 002-2v-6H1zm9-19h4a1 1 0 011 1h2a3 3 0 00-3-3h-4a3 3 0 00-3 3h2a1 1 0 011-1z"/></svg>

<?xml version="1.0" encoding="utf-8"?><svg xmlns="http://www.w3.org/2000/svg" viewBox="0 0 24 23" width="24" height="23"><path d="M24,7v4a2,2,0,0,1-2,2H14V11.5a.5.5,0,0,0-.5-.5h-3a.5.5,0,0,0-.5.5V13H2a2,2,0,0,1-2-2V7A2,2,0,0,1,2,5H22A2,2,0,0,1,24,7ZM1,21a2,2,0,0,0,2,2H21a2,2,0,0,0,2-2V15H1ZM10,2h4a1,1,0,0,1,1,1h2a3,3,0,0,0-3-3H10A3,3,0,0,0,7,3H9A1,1,0,0,1,10,2Z"/></svg>
